app/src/assets/vampire.svg

<?xml version="1.0" encoding="iso-8859-1"?>
<!-- Generator: Adobe Illustrator 18.1.1, SVG Export Plug-In . SVG Version: 6.00 Build 0)  -->
<svg version="1.1" id="Capa_1" xmlns="http://www.w3.org/2000/svg" xmlns:xlink="http://www.w3.org/1999/xlink" x="0px" y="0px"
	 viewBox="0 0 16.283 16.283" style="enable-background:new 0 0 16.283 16.283;" xml:space="preserve">
<g>
	<g>
		<g>
			<path style="fill:#090509;" d="M6.399,11.657c0.252,0.207,0.313,0.356,0.591,0.537c0,0.248,0,0.746,0,0.746
				s0.318-0.412,0.489-0.605c0.24,0.07,1.094,0.056,1.337-0.002c0.135,0.223,0.466,0.606,0.466,0.606s0-0.514,0-0.77
				c0.13-0.072,0.601-0.471,0.566-0.534C8.324,12.158,7.36,11.968,6.399,11.657z"/>
			<path style="fill:#090509;" d="M7.705,9.192C6.552,9.758,6.226,8.867,5.49,8.703c0.077,0.551,0.761,1.294,1.305,1.329
				C7.289,10.063,7.553,9.814,7.705,9.192z"/>
			<path style="fill:#090509;" d="M8.38,9.192c1.153,0.566,1.478-0.325,2.215-0.489c-0.076,0.551-0.76,1.294-1.305,1.329
				C8.796,10.063,8.531,9.814,8.38,9.192z"/>
			<path style="fill:#090509;" d="M12.669,10.26l-0.011,0.012c0.102-0.144,0.196-0.345,0.239-0.629
				c0.078-0.274,0.307-1.195,0.043-1.544c-0.031-0.042-0.069-0.076-0.112-0.101c0.114-0.396,0.265-1.045,0.286-1.763
				c0.011-0.005,0.019-0.01,0.028-0.016l-0.027-0.043c0.001-0.089,0.003-0.178,0-0.268l0.004-0.064c0,0,0.523-5.515-4.878-5.515
				c-3.356,0-4.72,2.327-4.925,4.86H3.29v0.867C3.285,6.071,3.281,6.084,3.276,6.097C3.199,6.314,3.194,6.329,3.502,7.958
				C3.422,7.982,3.353,8.031,3.299,8.1C3.037,8.448,3.266,9.368,3.337,9.614c0.042,0.273,0.125,0.467,0.219,0.613L0,8.117
				c0,0,5.071,7.816,7.838,7.838v-1.193c0.049,0.003,0.098,0.009,0.146,0.009c0.155,0,0.308-0.014,0.461-0.034v1.218
				c2.766-0.02,7.838-7.838,7.838-7.838L12.669,10.26z M7.915,13.918c-1.118-0.265-2.266-1.456-2.472-2.657
				c-0.03-0.178,0.003-0.407-0.117-0.536c-0.087-0.095-0.237-0.077-0.349-0.14c-0.281-0.157-0.488-0.561-0.629-0.864
				c-0.107-0.229-0.266-1.2-0.303-1.297C4.156,8.347,4.276,8.48,4.44,8.505c0.396,0.089,0.364,0.427,0.536,0.54
				c-0.026-1.476-0.21-3.65,1.213-3.661c0.971-0.007,1.727,0.3,2.06,1.152c0.244-0.623,1.026-1.175,1.81-1.175
				c1.399-0.026,1.215,2.181,1.258,3.66c0.201,0.018,0.246-0.396,0.537-0.413c0.175-0.051,0.278-0.094,0.42-0.1
				c-0.044,0.48-0.137,0.856-0.303,1.212c-0.133,0.285-0.353,0.714-0.629,0.864c-0.149,0.08-0.333,0.048-0.42,0.209
				c-0.094,0.176-0.077,0.442-0.116,0.606c-0.137,0.57-0.385,0.98-0.723,1.375c-0.418,0.489-1,0.973-1.655,1.143
				C8.307,13.95,8.065,13.954,7.915,13.918z"/>
		</g>
	</g>
</g>
<g>
</g>
<g>
</g>
<g>
</g>
<g>
</g>
<g>
</g>
<g>
</g>
<g>
</g>
<g>
</g>
<g>
</g>
<g>
</g>
<g>
</g>
<g>
</g>
<g>
</g>
<g>
</g>
<g>
</g>
</svg>

<?xml version="1.0" encoding="UTF-8" standalone="no"?>
<svg
   xmlns:dc="http://purl.org/dc/elements/1.1/"
   xmlns:cc="http://creativecommons.org/ns#"
   xmlns:rdf="http://www.w3.org/1999/02/22-rdf-syntax-ns#"
   xmlns:svg="http://www.w3.org/2000/svg"
   xmlns="http://www.w3.org/2000/svg"
   xmlns:sodipodi="http://sodipodi.sourceforge.net/DTD/sodipodi-0.dtd"
   xmlns:inkscape="http://www.inkscape.org/namespaces/inkscape"
   version="1.1"
   id="Capa_1"
   x="0px"
   y="0px"
   viewBox="0 0 16.283 16.283"
   style="enable-background:new 0 0 16.283 16.283;"
   xml:space="preserve"
   sodipodi:docname="vampire.svg"
   inkscape:version="1.0.1 (3bc2e813f5, 2020-09-07)"><metadata
   id="metadata110"><rdf:RDF><cc:Work
       rdf:about=""><dc:format>image/svg+xml</dc:format><dc:type
         rdf:resource="http://purl.org/dc/dcmitype/StillImage" /><dc:title></dc:title></cc:Work></rdf:RDF></metadata><defs
   id="defs108" /><sodipodi:namedview
   pagecolor="#ffffff"
   bordercolor="#666666"
   borderopacity="1"
   objecttolerance="10"
   gridtolerance="10"
   guidetolerance="10"
   inkscape:pageopacity="0"
   inkscape:pageshadow="2"
   inkscape:window-width="1366"
   inkscape:window-height="705"
   id="namedview106"
   showgrid="false"
   inkscape:zoom="33.040594"
   inkscape:cx="8.1415"
   inkscape:cy="4.5096041"
   inkscape:window-x="-8"
   inkscape:window-y="-8"
   inkscape:window-maximized="1"
   inkscape:current-layer="Capa_1" />
<g
   id="g73"
   style="fill:#000000"
   transform="matrix(0.37546468,0,0,0.36663789,0,0.20837613)">
	<g
   id="g71"
   style="fill:#000000">
		<g
   id="g69"
   style="fill:#000000">
			<path
   style="fill:#000000"
   d="m 6.399,11.657 c 0.252,0.207 0.313,0.356 0.591,0.537 0,0.248 0,0.746 0,0.746 0,0 0.318,-0.412 0.489,-0.605 0.24,0.07 1.094,0.056 1.337,-0.002 0.135,0.223 0.466,0.606 0.466,0.606 0,0 0,-0.514 0,-0.77 0.13,-0.072 0.601,-0.471 0.566,-0.534 -1.524,0.523 -2.488,0.333 -3.449,0.022 z"
   id="path61" />
			<path
   style="fill:#000000"
   d="M 7.705,9.192 C 6.552,9.758 6.226,8.867 5.49,8.703 c 0.077,0.551 0.761,1.294 1.305,1.329 0.494,0.031 0.758,-0.218 0.91,-0.84 z"
   id="path63" />
			<path
   style="fill:#000000"
   d="M 8.38,9.192 C 9.533,9.758 9.858,8.867 10.595,8.703 10.519,9.254 9.835,9.997 9.29,10.032 8.796,10.063 8.531,9.814 8.38,9.192 Z"
   id="path65" />
			<path
   style="fill:#000000"
   d="m 12.669,10.26 -0.011,0.012 C 12.76,10.128 12.854,9.927 12.897,9.643 12.975,9.369 13.204,8.448 12.94,8.099 12.909,8.057 12.871,8.023 12.828,7.998 12.942,7.602 13.093,6.953 13.114,6.235 13.125,6.23 13.133,6.225 13.142,6.219 L 13.115,6.176 c 10e-4,-0.089 0.003,-0.178 0,-0.268 l 0.004,-0.064 c 0,0 0.523,-5.515 -4.878,-5.515 -3.356,0 -4.72,2.327 -4.925,4.86 H 3.29 V 6.056 C 3.285,6.071 3.281,6.084 3.276,6.097 3.199,6.314 3.194,6.329 3.502,7.958 3.422,7.982 3.353,8.031 3.299,8.1 3.037,8.448 3.266,9.368 3.337,9.614 3.379,9.887 3.462,10.081 3.556,10.227 L 0,8.117 c 0,0 5.071,7.816 7.838,7.838 v -1.193 c 0.049,0.003 0.098,0.009 0.146,0.009 0.155,0 0.308,-0.014 0.461,-0.034 v 1.218 c 2.766,-0.02 7.838,-7.838 7.838,-7.838 z M 7.915,13.918 C 6.797,13.653 5.649,12.462 5.443,11.261 5.413,11.083 5.446,10.854 5.326,10.725 5.239,10.63 5.089,10.648 4.977,10.585 4.696,10.428 4.489,10.024 4.348,9.721 4.241,9.492 4.082,8.521 4.045,8.424 4.156,8.347 4.276,8.48 4.44,8.505 4.836,8.594 4.804,8.932 4.976,9.045 4.95,7.569 4.766,5.395 6.189,5.384 c 0.971,-0.007 1.727,0.3 2.06,1.152 0.244,-0.623 1.026,-1.175 1.81,-1.175 1.399,-0.026 1.215,2.181 1.258,3.66 0.201,0.018 0.246,-0.396 0.537,-0.413 0.175,-0.051 0.278,-0.094 0.42,-0.1 -0.044,0.48 -0.137,0.856 -0.303,1.212 -0.133,0.285 -0.353,0.714 -0.629,0.864 -0.149,0.08 -0.333,0.048 -0.42,0.209 -0.094,0.176 -0.077,0.442 -0.116,0.606 -0.137,0.57 -0.385,0.98 -0.723,1.375 -0.418,0.489 -1,0.973 -1.655,1.143 -0.121,0.033 -0.363,0.037 -0.513,10e-4 z"
   id="path67" />
		</g>
	</g>
</g>
<g
   id="g75">
</g>
<g
   id="g77">
</g>
<g
   id="g79">
</g>
<g
   id="g81">
</g>
<g
   id="g83">
</g>
<g
   id="g85">
</g>
<g
   id="g87">
</g>
<g
   id="g89">
</g>
<g
   id="g91">
</g>
<g
   id="g93">
</g>
<g
   id="g95">
</g>
<g
   id="g97">
</g>
<g
   id="g99">
</g>
<g
   id="g101">
</g>
<g
   id="g103">
</g>
</svg>
